img/icon-twitter.svg

<svg width="86" height="69" viewBox="0 0 86 69" fill="none" xmlns="http://www.w3.org/2000/svg">
<ellipse cx="54" cy="31.5" rx="32" ry="31.5" fill="#1D7FA9" fill-opacity="0.21"/>
<path d="M53.9907 22.9914C54.0265 23.4945 54.0265 23.9948 54.0265 24.495C54.0265 39.8044 42.8807 57.4454 22.5115 57.4454C16.236 57.4454 10.406 55.545 5.5 52.2445C6.391 52.3509 7.249 52.3883 8.17575 52.3883C13.1615 52.4008 18.006 50.6579 21.9285 47.4404C19.6169 47.3966 17.3761 46.5993 15.5189 45.1597C13.6617 43.7202 12.2809 41.7102 11.5692 39.4105C12.254 39.5169 12.9415 39.5888 13.662 39.5888C14.6547 39.5888 15.653 39.445 16.5797 39.1949C14.0711 38.6653 11.8153 37.2438 10.196 35.1718C8.5766 33.0999 7.69366 30.5056 7.69725 27.83V27.6863C9.174 28.5459 10.8872 29.0835 12.7023 29.1554C11.1817 28.0991 9.93498 26.6657 9.07318 24.9832C8.21139 23.3006 7.76136 21.4212 7.76325 19.5126C7.76325 17.3621 8.3105 15.3899 9.27025 13.6706C12.0536 17.2501 15.5251 20.1784 19.4599 22.2659C23.3947 24.3534 27.705 25.5536 32.1117 25.7888C31.9412 24.9263 31.8368 24.0321 31.8368 23.1351C31.836 21.6141 32.122 20.1079 32.6785 18.7026C33.2349 17.2972 34.0508 16.0203 35.0795 14.9448C36.1083 13.8693 37.3297 13.0163 38.6739 12.4346C40.0182 11.8529 41.4589 11.5539 42.9137 11.5546C46.1037 11.5546 48.983 12.9519 51.007 15.2116C53.4869 14.7103 55.865 13.7638 58.036 12.4143C57.2094 15.0903 55.4778 17.3596 53.1657 18.7968C55.3652 18.5345 57.5147 17.9298 59.543 17.0028C58.0281 19.3117 56.1509 21.3364 53.9907 22.9914Z" fill="#1D7FA9" fill-opacity="0.81"/>
</svg>

<svg width="86" height="69" fill="none" xmlns="http://www.w3.org/2000/svg"><ellipse cx="54" cy="31.5" rx="32" ry="31.5" fill="#1D7FA9" fill-opacity=".21"/><path d="M53.99 22.991c.036.503.036 1.004.036 1.504 0 15.31-11.145 32.95-31.515 32.95-6.275 0-12.105-1.9-17.011-5.2.891.106 1.749.143 2.676.143 4.986.013 9.83-1.73 13.752-4.948a10.79 10.79 0 0 1-6.41-2.28c-1.856-1.44-3.237-3.45-3.949-5.75.685.107 1.372.179 2.093.179.993 0 1.991-.144 2.918-.394-2.509-.53-4.765-1.951-6.384-4.023-1.62-2.072-2.502-4.666-2.499-7.342v-.144c1.477.86 3.19 1.398 5.005 1.47a11.395 11.395 0 0 1-3.629-4.173 11.985 11.985 0 0 1-1.31-5.47c0-2.15.547-4.123 1.507-5.842a31.813 31.813 0 0 0 10.19 8.595 30.443 30.443 0 0 0 12.652 3.523 13.735 13.735 0 0 1-.275-2.654c-.001-1.52.285-3.027.841-4.432a11.623 11.623 0 0 1 2.402-3.758 11.054 11.054 0 0 1 3.594-2.51 10.656 10.656 0 0 1 4.24-.88c3.19 0 6.069 1.397 8.093 3.657a21.312 21.312 0 0 0 7.029-2.798c-.827 2.676-2.558 4.946-4.87 6.383 2.2-.262 4.349-.867 6.377-1.794a24.394 24.394 0 0 1-5.552 5.988Z" fill="#1D7FA9" fill-opacity=".81"/></svg>
